X: 24122
T: Longford Collector, The
R: reel
M: 4/4
K: Gmajor
~G3 A Bddf|eB ~B2 eBdB|~G3 A BddB|AcBA GEDE|
~G3 A Bddf|eB ~B2 d2 ef|~g2 af gedB|AcBA GEDE:|
|:~g3 a gedf|eB ~B2 d2 ef|~g2 af gedB|AcBA GEDE|
~g3 a gedf|eB ~B2 d2 ef|~g2 af gedB|AcBA GEDE:|

